X:3
T:Gusty Garden Galaxy (From "Super Mario Galaxy")
M:4/4
L:1/4
K:C#
Q:1/4 = 152
"C#"c2 z/2 B/2d/2c/2| "C#/F"G2 z/2 E/2 F/2 G/2 | "Gbsus2"G3/2  F5/2| z2 "Gbsus2/F"z2 |
"Ebm"d2 z/2 =d/2e/2^d/2| "G#7"c3/2 B/2 z/2 A B/2| "C#sus4"A3/2 "C#"G5/2|"G#/C"z "Fm7/C"z3|
|"G#m/Cb"g5/2 ^^f/2 a/2 g/2 |"Bb7"^f/2 z e5/2|"Ebm"f5/2 e/2 g/2 f/2 |"GbmM7"e/2 z "Gbm6"d5/2|
|"C#/Ab"e5/2 d/2f/2e/2|"Eb/G"d/2 z ^^c e d/2|"Gb/Ab"c3/2 "Ab7" B5/2 | "Bbb"c3/2 "Cb" d5/2 |
"Db"c'2 z/2 b/2d'/2c'/2| g2 z/2 e/2 f/2 g/2 |"Eb7/Db" g3/2  ^^f5/2| z4 |
"Ebmb5/C#"d'2 z/2 =d'/2e'/2^d'/2| c'3/2 ^^a ^^g ^^a/2| "C#"^^g3/2 ^g5/2|"Fm/C"z4|
|"Abm/Cb"g5/2 ^^f/2 a/2 g/2|"Bb7"^f/2 z e5/2|"Ebm"f5/2 e/2 g/2 f/2|"GbmM7"e/2 z "Gbm6"d5/2|
|"C#/Ab"e5/2 d/2 f/2 e/2| "Ab"d/2 z "Gbm"^^G "Abm7"^^A "Db"c/2| c2 e'/2f'/2g'/2"Ebb/Db"^^g' |g'/2"Db"f'/2g'/2g'5/2|